usr/share/icons/biglinux-icons-material/24/actions/draw-eraser.svg

<svg xmlns="http://www.w3.org/2000/svg" viewBox="0 0 24 24"><path d="m16 4-8 8 4 4 8-8-4-4zM6 14l-2 2 4 4 2-2-4-4z" style="fill:currentColor;fill-opacity:1;stroke:none;color:#dedede"/></svg>

<svg xmlns="http://www.w3.org/2000/svg" viewBox="0 0 24 24">
  <defs id="defs3051">
    <style type="text/css" id="current-color-scheme">
      .ColorScheme-Text {
        color:#363636;
      }
      </style>
  </defs>
 <path style="fill:currentColor;fill-opacity:1;stroke:none" 
     d="M 16 4 L 8 12 L 12 16 L 20 8 L 16 4 z M 6 14 L 4 16 L 8 20 L 10 18 L 6 14 z "
     class="ColorScheme-Text"
     />
</svg>
